Sources/FrostedUI/Resources/Icons.xcassets/calendarPlus24.imageset/calendar-plus-24.svg

<svg width="24" height="24" viewBox="0 0 24 24" fill="none" xmlns="http://www.w3.org/2000/svg" data-fui-icon="true">
  <path
    d="M17.75 14C18.1642 14 18.5 14.3358 18.5 14.75V17.25H21C21.4142 17.25 21.75 17.5858 21.75 18C21.75 18.4142 21.4142 18.75 21 18.75H18.5V21.25C18.5 21.6642 18.1642 22 17.75 22C17.3358 22 17 21.6642 17 21.25V18.75H14.5C14.0858 18.75 13.75 18.4142 13.75 18C13.75 17.5858 14.0858 17.25 14.5 17.25H17V14.75C17 14.3358 17.3358 14 17.75 14ZM16.25 2C16.6642 2 17 2.33579 17 2.75V4H18.25C19.7688 4 21 5.23122 21 6.75V11.25C21 11.6642 20.6642 12 20.25 12C19.8358 12 19.5 11.6642 19.5 11.25V10H4.5V18.25C4.5 18.9404 5.05964 19.5 5.75 19.5H11.25C11.6642 19.5 12 19.8358 12 20.25C12 20.6642 11.6642 21 11.25 21H5.75C4.23122 21 3 19.7688 3 18.25V6.75C3 5.23122 4.23122 4 5.75 4H7V2.75C7 2.33579 7.33579 2 7.75 2C8.16421 2 8.5 2.33579 8.5 2.75V4H15.5V2.75C15.5 2.33579 15.8358 2 16.25 2ZM5.75 5.5C5.05964 5.5 4.5 6.05964 4.5 6.75V8.5H19.5V6.75C19.5 6.05964 18.9404 5.5 18.25 5.5H5.75Z"
    fill="currentColor"
  />
</svg>

<svg xmlns="http://www.w3.org/2000/svg" width="24" height="24" fill="none" data-fui-icon="true" viewBox="0 0 24 24"><path fill="currentColor" d="M17.75 14a.75.75 0 0 1 .75.75v2.5H21a.75.75 0 0 1 0 1.5h-2.5v2.5a.75.75 0 0 1-1.5 0v-2.5h-2.5a.75.75 0 0 1 0-1.5H17v-2.5a.75.75 0 0 1 .75-.75m-1.5-12a.75.75 0 0 1 .75.75V4h1.25A2.75 2.75 0 0 1 21 6.75v4.5a.75.75 0 0 1-1.5 0V10h-15v8.25c0 .69.56 1.25 1.25 1.25h5.5a.75.75 0 0 1 0 1.5h-5.5A2.75 2.75 0 0 1 3 18.25V6.75A2.75 2.75 0 0 1 5.75 4H7V2.75a.75.75 0 0 1 1.5 0V4h7V2.75a.75.75 0 0 1 .75-.75M5.75 5.5c-.69 0-1.25.56-1.25 1.25V8.5h15V6.75c0-.69-.56-1.25-1.25-1.25z"/></svg>
